static/icons/activity.svg

<?xml version="1.0" encoding="UTF-8" standalone="no"?>
<svg width="512px" height="512px" viewBox="0 0 512 512" version="1.1" xmlns="http://www.w3.org/2000/svg" xmlns:xlink="http://www.w3.org/1999/xlink" xmlns:sketch="http://www.bohemiancoding.com/sketch/ns">
    <!-- Generator: Sketch 3.0.4 (8053) - http://www.bohemiancoding.com/sketch -->
    <title>activity_off</title>
    <desc>Created with Sketch.</desc>
    <defs></defs>
    <g id="Icons" stroke="none" stroke-width="1" fill="none" fill-rule="evenodd" sketch:type="MSPage">
        <g id="activity_off" sketch:type="MSArtboardGroup" fill="#2A4D50">
            <path d="M242.92135,2.07488939 C258.727635,2.07488939 274.54054,1.87219708 290.346826,2.13373555 C305.160254,2.38219708 309.873016,9.3325817 304.822683,22.8475817 C288.890635,65.4979663 272.885778,108.122197 257.079492,150.811812 C256.05354,153.590659 252.830064,156.912197 255.656397,159.651812 C257.827445,161.750659 261.229635,159.586428 264.04273,158.899889 C298.52135,150.478351 332.999969,142.056812 367.485207,133.641812 C370.040159,133.020659 372.588492,132.379889 375.169921,131.856812 C381.093969,130.647197 386.342873,131.967966 390.25473,136.629889 C394.126873,141.252582 393.153873,146.156428 390.731302,151.223736 C375.898016,182.379505 361.170635,213.587582 346.430016,244.782582 C307.20554,327.781812 268.000921,410.781043 228.796302,493.786812 C227.962302,495.552197 227.181254,497.337197 226.30754,499.082966 C221.945588,507.720274 214.896302,511.231428 207.304254,508.485274 C198.117016,505.157197 197.448492,498.311428 199.467302,490.177582 C210.368873,446.317582 221.197635,402.444505 232.026397,358.571428 C240.518635,324.166043 248.845397,289.714889 257.575921,255.368351 C259.277016,248.659889 258.376826,247.561428 251.420207,249.313736 C215.12135,258.500274 178.70335,267.235659 142.318445,276.127966 C139.770111,276.755659 137.228397,277.455274 134.63373,277.886812 C121.64054,280.037966 114.604492,272.557966 117.741921,259.788351 C131.37054,204.211428 145.045492,148.647582 158.720445,93.0837355 C165.021778,67.5118125 171.60773,42.005274 177.531778,16.3548894 C179.835207,6.37719708 185.494492,2.0225817 195.482635,2.07488939 C211.302159,2.14027401 227.108445,2.08142785 242.92135,2.07488939 L242.92135,2.07488939 Z" id="Activity-2" sketch:type="MSShapeGroup"></path>
        </g>
    </g>
</svg>

<svg width="512" height="512" viewBox="0 0 512 512" xmlns="http://www.w3.org/2000/svg"><title>activity_off</title><desc>Created with Sketch.</desc><path d="M242.92 2.075c15.808 0 31.62-.203 47.427.06 14.813.247 19.526 7.198 14.476 20.713-15.932 42.65-31.937 85.274-47.744 127.964-1.027 2.78-4.25 6.1-1.425 8.84 2.17 2.1 5.574-.066 8.387-.752 34.478-8.422 68.957-16.843 103.442-25.258 2.555-.62 5.103-1.262 7.685-1.785 5.923-1.21 11.172.11 15.084 4.773 3.872 4.623 2.9 9.526.476 14.594-14.832 31.156-29.56 62.364-44.3 93.56C307.206 327.78 268 410.78 228.796 493.786c-.834 1.765-1.615 3.55-2.488 5.296-4.362 8.637-11.412 12.148-19.004 9.402-9.187-3.328-9.856-10.174-7.837-18.307 10.902-43.86 21.73-87.733 32.56-131.607 8.492-34.404 16.818-68.855 25.55-103.202 1.7-6.708.8-7.807-6.157-6.054-36.3 9.186-72.717 17.922-109.102 26.814-2.548.628-5.09 1.327-7.684 1.76-12.993 2.15-20.03-5.33-16.892-18.1 13.63-55.577 27.303-111.14 40.978-166.704 6.302-25.572 12.888-51.08 18.812-76.73 2.303-9.977 7.962-14.33 17.95-14.28 15.82.066 31.626.007 47.44 0z" fill="#2A4D50" fill-rule="evenodd"/></svg>
